!!!COM: Bach, Johann Sebastian
!!!OTL: 165. O Lamm Gottes, unschuldig
!!!ONM: No. 165
!!!OCL: Erk
!!!SCA: BWV 401
!!!YOE: Riemenschneider, Albert
!!!OPR: 371 Harmonized Chorales and 69 Chorale Melodies with Figured Bass
!!!OPT: Bach Chorale Harmonizations
**harm	**root	**kern	**kern	**kern	**kern
!	!	!bass	!tenor	!alto	!sprno
*Iorgan	*Iorgan	*Iorgan	*Iorgan	*Iorgan	*Iorgan
*>[A,A,B]	*>[A,A,B]	*>[A,A,B]	*>[A,A,B]	*>[A,A,B]	*>[A,A,B]
*>norep[A,B]	*>norep[A,B]	*>norep[A,B]	*>norep[A,B]	*>norep[A,B]	*>norep[A,B]
*>A	*>A	*>A	*>A	*>A	*>A
*k[]	*k[]	*k[]	*k[]	*k[]	*k[]
*C:	*C:	*C:	*C:	*C:	*C:
*met(c)	*met(c)	*met(c)	*met(c)	*met(c)	*met(c)
*M4/4	*M4/4	*M4/4	*M4/4	*M4/4	*M4/4
*MM60	*MM60	*MM60	*MM60	*MM60	*MM60
I	4FF	8CC	8E	4G	4c
.	.	8DD	8F	.	.
=1	=1	=1	=1	=1	=1
I7b	4FF	4EE	[4G	16G	4c
.	.	.	.	16A	.
.	.	.	.	8B-	.
IV	4BB-	[4FF	8G]	8B-	4c
.	.	.	16F	8A	.
.	.	.	16E	.	.
V7c	4CC	4FF]	4D	8B	4g
.	.	.	.	8G	.
Ib	4FF	8EE	[4G	8c	4g
.	.	8DD	.	8B	.
=2	=2	=2	=2	=2	=2
vi7b	4DD	4CC	4G]	4e	2a
V/V	4GG	4DD	4F#	8d	.
.	.	.	.	8c	.
V;	4CC;	4GG;	4D;	4B;	4g;
iii	4AA	4EE	4E	[4B	4g
=3	=3	=3	=3	=3	=3
vi	4DD	4AA	4E	8B]	4c
.	.	.	.	[8A	.
Vb	4CC	4BB	4D	8A]	4d
.	.	.	.	8G	.
I	4FF	8C	4.C	8G	4e
.	.	8BB	.	16A	.
.	.	.	.	16B	.
IVb	4BB-	8AA	.	[4c	4f
.	.	8FF	8A	.	.
=4	=4	=4	=4	=4	=4
Ic	4FF	4GG	4G	8c]	4e
.	.	.	.	16B	.
.	.	.	.	16A	.
V	4CC	4GGG	8.G	4B	8d
.	.	.	.	.	8c
.	.	.	16F	.	.
I;	4FF;	4CC;	4E;	4G;	4c;
=:|!	=:|!	=:|!	=:|!	=:|!	=:|!
*>B	*>B	*>B	*>B	*>B	*>B
I	4FF	[4C	4G	4c	4e
=5	=5	=5	=5	=5	=5
I	4FF	8C]	4G	4c	4e
.	.	8BB	.	.	.
vi	4DD	8AA	4A	4c	4e
.	.	8GG	.	.	.
V7b/V	4GG	4FF#	4A	4c	4d
Vb/vi	4AA	4GG#	4E	4B	4e
=6	=6	=6	=6	=6	=6
!!linebreak: 2
vi	8DD	8AA	8E	8A	8c
Vb	8CC	8BB	8D	[8G	8B
vi7b	8DD	8C	8E	8G]	4A
V/V	8GG	8D	16D	8F#	.
.	.	.	16C	.	.
V;	4CC;	4GG;	4BB;	4D;	4G;
V7b/IV	4FF	4EE	4C	4B-	4g
=7	=7	=7	=7	=7	=7
IV	8BB-	4FF	8C	8A	4a
(vii7c)	8EE	.	8D	8B	.
I	4FF	[4C	8E	8c	4g
.	.	.	8F	16d	.
.	.	.	.	16e	.
Vb	4CC	8C]	[4G	4d	4g
.	.	8BB	.	.	.
I	8FF	4C	8G]	4c	8e
IVc	8BB-	.	8A	.	8f
=8	=8	=8	=8	=8	=8
V7/IV	8FF	8C	4B-	4.e	4g
viioD7/ii	8FF#	8C#	.	.	.
v/VI	4AA	8D	4A	.	4f
.	.	8DD	.	[8d	.
VI;	4DD;	4AA;	4A;	8d]	4e;
.	.	.	.	8c#;	.
iib	8GG	8FF	8A	4d	4a
V7b/V	8GG	8FF#	8c	.	.
=9	=9	=9	=9	=9	=9
V	4CC	4GG	[4B	4d	8g
.	.	.	.	.	8f
vi	4DD	4AA	8B]	4c	4e
.	.	.	[8A	.	.
Vb	4CC	4BB	8A]	[4d	4d
.	.	.	8G	.	.
I	4FF	4C	4G	8d]	4e
.	.	.	.	16c	.
.	.	.	.	16B	.
=10	=10	=10	=10	=10	=10
Ib	4FF	8EE	8G	4c	4g
.	.	16FF	8E	.	.
.	.	16GG	.	.	.
vi	4DD	8AA	8C	[4c	4e
.	.	8GG	8E	.	.
ii7b	4GG	4FF	4A	4c]	2d
V	4CC	4GG	8G	4B	.
.	.	.	8F	.	.
=11	=11	=11	=11	=11	=11
I;	2.FF;	2.CC;	2.E;	2.G;	2.c;
==	==	==	==	==	==
*-	*-	*-	*-	*-	*-
!!!CDT: 1685/3//-1750/7/28
!!!OCY: Deutschland
!!!AGN: chorale
!!!AST: Baroque
!!!AIN: vox
!!!YOY: 1941
!!!PPP: New York; London
!!!PPR: G. Schirmer
!!!ENC: David Huron
!!!EED: David Huron
!!!YEN: United States of America
!!!YER: 1992
!!!YEC: Copyright 1992 David Huron
!!!YEM: Rights to all derivative electronic formats reserved.
!!!YER: March 20, 1996
!!!AMT: simple quadruple
!!!EEV: 1.1
!!chor2scor: -l 2 -s 0.6 -o %b.pmx
